X: 9
T: Saint Anne's
R: reel
M: 4/4
L: 1/8
K: Dmaj
de|:"D"f2fg fedB|A2F2 F2dc|"G"B2G2 BcdB|"D"A2F2 F2de|
"D"fefg fedB|A2F2 F2dc|"G"BGAB "A"cABc|1"D"d2d2 d2de:|2"D"d2d2 d2ag||
|:"D"fedc defg|"G"a2gg g2 f2|"A"edcB Aceg|"D"b2a2 a2ag|
"D"fedc defg|"G"a2gg g2f2|"A"edcB ABcd|1"D"e2dd d2ag:|2"D"e2dd d2|]


Tune 103	Setting 12666

